packages/swarm-icons/src/icons/large/Facebook.svg

<?xml version="1.0" encoding="UTF-8"?>
<svg width="28px" height="28px" viewBox="0 0 28 28" version="1.1" xmlns="http://www.w3.org/2000/svg" xmlns:xlink="http://www.w3.org/1999/xlink">
    <!-- Generator: Sketch 61.2 (89653) - https://sketch.com -->
    <title>28dp/Logo Facebook</title>
    <desc>Created with Sketch.</desc>
    <g id="28dp/Logo-Facebook" stroke="none" stroke-width="1" fill="none" fill-rule="evenodd">
        <path d="M26.5,14 C26.5,7.09643555 20.9035645,1.5 14,1.5 C7.09643555,1.5 1.5,7.09643555 1.5,14 C1.5,20.2391113 6.07106934,25.4104004 12.046875,26.3481445 L12.046875,17.6132812 L8.87304688,17.6132812 L8.87304688,14 L12.046875,14 L12.046875,11.2460937 C12.046875,8.11328125 13.9130371,6.3828125 16.7683105,6.3828125 C18.1359131,6.3828125 19.5664062,6.62695312 19.5664062,6.62695312 L19.5664062,9.703125 L17.9901855,9.703125 C16.4373779,9.703125 15.953125,10.6666748 15.953125,11.6552002 L15.953125,14 L19.4199219,14 L18.8657227,17.6132812 L15.953125,17.6132812 L15.953125,26.3481445 C21.9289307,25.4104004 26.5,20.2391113 26.5,14" id="Color" fill="#212121" fill-rule="nonzero"></path>
    </g>
</svg>

<svg width="28" height="28" xmlns="http://www.w3.org/2000/svg"><path d="M26.5 14c0-6.904-5.596-12.5-12.5-12.5S1.5 7.096 1.5 14c0 6.24 4.571 11.41 10.547 12.348v-8.735H8.873V14h3.174v-2.754c0-3.133 1.866-4.863 4.721-4.863 1.368 0 2.798.244 2.798.244v3.076H17.99c-1.553 0-2.037.964-2.037 1.952V14h3.467l-.554 3.613h-2.913v8.735C21.93 25.41 26.5 20.24 26.5 14" fill="#212121" fill-rule="nonzero"/></svg>
